X: 442
P: Longways for as many as will
M: C|
L: 1/8
K: C
E3D C2G2 | c6 d2 | e2(de) (fe) (dc) | d2 D4 G2 |\
E3D C2G2 | c6 d2 | e2(de) (fe) (dc) | e2 g4 |]
d2 |\
(EF)G2 A2c2 | (Bc)d2 G2f2 | (ef)g2 d2f2 | e2 c4 |]

